X:683
M:C|
L:1/8
K:C
defd ecc||
|:G|ECEG AFAc|ECFE DG,G,F|1 ECEG AFAc|BdGf ecc:|2 EGFA G_BAc|

